X:1
T:Lads a Bunchum
C:Traditional
M:2/2
L:1/8
Q:1/4=112
K:G
GA|:B3c Bcde|c2A2 A2Bc|d2d2 dcBA|G4 G4:|
d2B2 B2cd|e2c2 c2de|f2f2 fedc|B2G2 G4|]
